X:116
T:Fighting General. ThoH.116, The
Q:3/8=100
M:6/8
L:1/8
B:Thompson's Compleat Collection of 120 Favourite Hornpipes.
Z:Village Music Project, Simon Wilson 2016
O:England.
K:Bb
Bdf{e}d2c|Bdf{e}d2c|Bbg fdB|Ace dcB|
Bdf{e}d2c|Bdg =e2d|cbg =ece|f3F3||
FAc{B}A2G|FGE DCB,|def gab|fedc2c|
BF_A{A}G2F|EGcA2G|Fec AFA|B3B,3|]

